img/servicios-videoclip-icon.svg

<svg width="55" height="55" viewBox="0 0 55 55" fill="none" xmlns="http://www.w3.org/2000/svg">
<path d="M53.2812 18.1741C53.2812 11.5088 47.8775 6.10672 41.2139 6.10672C36.1539 6.10672 31.8278 9.22453 30.0343 13.6409C28.9154 6.88016 23.0588 1.71875 15.9801 1.71875C8.10477 1.71875 1.71875 8.10477 1.71875 15.9801C1.71875 23.6027 7.70258 29.81 15.2255 30.2045C15.0116 30.5439 14.8827 30.9349 14.8827 31.3397V38.4691L7.20328 34.6302V51.0873L14.9557 47.2106C15.1963 48.1362 16.0557 48.8916 17.0775 48.8916H23.6595V53.2812H33.5337V48.8924H39.0191C40.2222 48.8924 41.213 47.8431 41.213 46.6993V36.8251L46.6984 37.9216V30.2423L41.213 31.3388C41.213 30.9418 41.0876 30.5602 40.8822 30.2251C40.993 30.2285 41.1005 30.2423 41.213 30.2423C47.8775 30.2423 53.2812 24.8394 53.2812 18.1741ZM51.0211 19.9315C51.0031 20.6532 50.7038 21.3394 50.1869 21.8435C49.6701 22.3476 48.9767 22.6297 48.2548 22.6297C47.5328 22.6297 46.8394 22.3476 46.3226 21.8435C45.8058 21.3394 45.5064 20.6532 45.4884 19.9315C45.5064 19.2097 45.8058 18.5236 46.3226 18.0195C46.8394 17.5154 47.5328 17.2333 48.2548 17.2333C48.9767 17.2333 49.6701 17.5154 50.1869 18.0195C50.7038 18.5236 51.0031 19.2097 51.0211 19.9315ZM45.4893 9.30531C45.8524 9.30531 46.212 9.37683 46.5474 9.51579C46.8829 9.65475 47.1877 9.85842 47.4445 10.1152C47.7012 10.3719 47.9049 10.6767 48.0439 11.0122C48.1828 11.3477 48.2543 11.7072 48.2543 12.0704C48.2543 12.4335 48.1828 12.793 48.0439 13.1285C47.9049 13.464 47.7012 13.7688 47.4445 14.0255C47.1877 14.2823 46.8829 14.486 46.5474 14.6249C46.212 14.7639 45.8524 14.8354 45.4893 14.8354C44.7561 14.8354 44.0529 14.5441 43.5344 14.0257C43.016 13.5072 42.7247 12.804 42.7247 12.0708C42.7245 11.7076 42.7958 11.348 42.9347 11.0124C43.0735 10.6768 43.2771 10.3719 43.5339 10.1151C43.7906 9.85827 44.0955 9.65456 44.431 9.51561C44.7665 9.37666 45.1261 9.3052 45.4893 9.30531ZM43.6872 18.5926C43.6872 18.7761 43.6143 18.952 43.4846 19.0818C43.3548 19.2115 43.1789 19.2844 42.9954 19.2844C42.8119 19.2844 42.636 19.2115 42.5062 19.0818C42.3765 18.952 42.3036 18.7761 42.3036 18.5926C42.3036 18.4091 42.3765 18.2331 42.5062 18.1034C42.636 17.9737 42.8119 17.9008 42.9954 17.9008C43.1789 17.9008 43.3548 17.9737 43.4846 18.1034C43.6143 18.2331 43.6872 18.4091 43.6872 18.5926ZM42.3045 15.9354C42.3953 15.9354 42.4852 15.9534 42.5692 15.9882C42.6531 16.023 42.7293 16.074 42.7935 16.1383C42.8577 16.2026 42.9086 16.2789 42.9433 16.3628C42.978 16.4468 42.9959 16.5368 42.9958 16.6276C42.9958 16.7185 42.9778 16.8084 42.943 16.8923C42.9082 16.9762 42.8572 17.0525 42.7929 17.1167C42.7286 17.1809 42.6523 17.2318 42.5684 17.2665C42.4844 17.3012 42.3944 17.319 42.3036 17.319C42.1201 17.3189 41.9442 17.2459 41.8145 17.1161C41.6849 16.9862 41.6121 16.8102 41.6122 16.6268C41.6123 16.4433 41.6853 16.2674 41.8152 16.1377C41.945 16.0081 42.121 15.9353 42.3045 15.9354ZM41.2354 19.2844C41.3725 19.2844 41.5064 19.325 41.6204 19.4012C41.7343 19.4774 41.8231 19.5857 41.8755 19.7124C41.9279 19.839 41.9415 19.9784 41.9146 20.1128C41.8877 20.2472 41.8216 20.3706 41.7246 20.4674C41.6275 20.5642 41.5039 20.6301 41.3695 20.6566C41.235 20.6831 41.0957 20.6692 40.9691 20.6165C40.8426 20.5638 40.7345 20.4747 40.6586 20.3606C40.5827 20.2465 40.5424 20.1124 40.5427 19.9753C40.5432 19.7919 40.6164 19.6162 40.7462 19.4866C40.8761 19.3571 41.052 19.2844 41.2354 19.2844ZM40.8581 16.6272C40.8583 16.7179 40.8407 16.8078 40.8062 16.8917C40.7717 16.9756 40.721 17.0519 40.657 17.1163C40.593 17.1806 40.5169 17.2317 40.4332 17.2666C40.3494 17.3015 40.2596 17.3196 40.1689 17.3198C40.0782 17.3201 39.9883 17.3024 39.9044 17.2679C39.8204 17.2334 39.7442 17.1827 39.6798 17.1187C39.6155 17.0547 39.5644 16.9786 39.5295 16.8949C39.4946 16.8112 39.4765 16.7214 39.4762 16.6306C39.4758 16.4474 39.5481 16.2715 39.6774 16.1416C39.8067 16.0117 39.9822 15.9384 40.1655 15.938C40.3487 15.9375 40.5246 16.0099 40.6545 16.1391C40.7844 16.2684 40.8577 16.4439 40.8581 16.6272ZM40.1655 18.5926C40.1655 18.6834 40.1477 18.7733 40.113 18.8572C40.0783 18.9411 40.0274 19.0173 39.9633 19.0816C39.8991 19.1458 39.8229 19.1968 39.7391 19.2316C39.6552 19.2664 39.5653 19.2843 39.4745 19.2844C39.3837 19.2844 39.2938 19.2666 39.2099 19.2319C39.126 19.1972 39.0498 19.1463 38.9855 19.0822C38.9213 19.018 38.8703 18.9418 38.8355 18.858C38.8007 18.7741 38.7828 18.6842 38.7827 18.5934C38.7826 18.4101 38.8554 18.2342 38.9849 18.1044C39.1145 17.9747 39.2903 17.9018 39.4737 17.9016C39.657 17.9015 39.8329 17.9743 39.9627 18.1038C40.0924 18.2334 40.1654 18.4092 40.1655 18.5926ZM21.0341 5.49828C21.4709 5.48601 21.9058 5.56146 22.313 5.72016C22.7202 5.87886 23.0914 6.11759 23.4047 6.42225C23.7181 6.7269 23.9671 7.09129 24.1372 7.49387C24.3073 7.89644 24.3949 8.32903 24.3949 8.76605C24.3949 9.20308 24.3073 9.63567 24.1372 10.0382C23.9671 10.4408 23.7181 10.8052 23.4047 11.1099C23.0914 11.4145 22.7202 11.6533 22.313 11.812C21.9058 11.9707 21.4709 12.0461 21.0341 12.0338C20.1833 12.0099 19.3754 11.6552 18.7821 11.0449C18.1887 10.4347 17.8568 9.61717 17.8568 8.76605C17.8568 7.91494 18.1887 7.09738 18.7821 6.48716C19.3754 5.87694 20.1833 5.52218 21.0341 5.49828ZM18.9037 16.4751C18.894 16.6853 18.8037 16.8838 18.6515 17.0292C18.4993 17.1746 18.2969 17.2557 18.0864 17.2557C17.8759 17.2557 17.6735 17.1746 17.5213 17.0292C17.3691 16.8838 17.2788 16.6853 17.2691 16.4751C17.2691 16.2583 17.3552 16.0505 17.5085 15.8972C17.6618 15.7439 17.8697 15.6578 18.0864 15.6578C18.3032 15.6578 18.511 15.7439 18.6643 15.8972C18.8176 16.0505 18.9037 16.2583 18.9037 16.4751ZM17.2691 13.3349C17.486 13.3353 17.6939 13.4217 17.847 13.5753C18.0001 13.7289 18.0859 13.937 18.0855 14.1539C18.0852 14.3708 17.9987 14.5786 17.8451 14.7317C17.6915 14.8848 17.4834 14.9707 17.2666 14.9703C17.0497 14.97 16.8418 14.8835 16.6887 14.7299C16.5356 14.5763 16.4498 14.3682 16.4502 14.1513C16.4505 13.9345 16.537 13.7266 16.6906 13.5735C16.8442 13.4204 17.0523 13.3346 17.2691 13.3349ZM16.0067 17.2915C16.114 17.2918 16.2201 17.3132 16.3191 17.3545C16.4181 17.3958 16.508 17.4562 16.5837 17.5322C16.6593 17.6083 16.7193 17.6985 16.76 17.7977C16.8008 17.8969 16.8217 18.0032 16.8214 18.1105C16.8211 18.2177 16.7997 18.3239 16.7584 18.4229C16.7171 18.5219 16.6567 18.6118 16.5806 18.6874C16.5046 18.7631 16.4144 18.823 16.3152 18.8638C16.216 18.9046 16.1097 18.9254 16.0024 18.9252C15.7858 18.9246 15.5782 18.838 15.4255 18.6844C15.2727 18.5308 15.1872 18.3228 15.1877 18.1062C15.1883 17.8895 15.2749 17.682 15.4285 17.5292C15.5821 17.3764 15.7901 17.2909 16.0067 17.2915ZM15.5598 14.1522C15.5632 14.2618 15.5445 14.371 15.5049 14.4732C15.4652 14.5755 15.4054 14.6687 15.329 14.7474C15.2526 14.826 15.1612 14.8885 15.0601 14.9312C14.9591 14.9738 14.8505 14.9957 14.7408 14.9955C14.6312 14.9953 14.5226 14.9731 14.4217 14.9302C14.3208 14.8872 14.2296 14.8244 14.1534 14.7455C14.0773 14.6666 14.0177 14.5732 13.9784 14.4708C13.9391 14.3684 13.9207 14.2592 13.9245 14.1496C13.9317 13.9373 14.0211 13.7362 14.174 13.5887C14.3268 13.4412 14.531 13.3589 14.7434 13.3593C14.9558 13.3596 15.1597 13.4425 15.3121 13.5905C15.4645 13.7385 15.5533 13.9399 15.5598 14.1522ZM14.7434 16.4751C14.7366 16.6874 14.6474 16.8886 14.4948 17.0364C14.3422 17.1841 14.1381 17.2667 13.9257 17.2667C13.7134 17.2667 13.5093 17.1841 13.3567 17.0364C13.2041 16.8886 13.1149 16.6874 13.108 16.4751C13.108 16.2582 13.1942 16.0502 13.3475 15.8969C13.5009 15.7435 13.7089 15.6574 13.9257 15.6574C14.1426 15.6574 14.3506 15.7435 14.5039 15.8969C14.6573 16.0502 14.7434 16.2582 14.7434 16.4751ZM7.65875 21.3254C6.79197 21.3254 5.96069 20.9811 5.34778 20.3682C4.73487 19.7552 4.39055 18.924 4.39055 18.0572C4.39055 17.1904 4.73487 16.3591 5.34778 15.7462C5.96069 15.1333 6.79197 14.789 7.65875 14.789C8.52553 14.789 9.35681 15.1333 9.96972 15.7462C10.5826 16.3591 10.927 17.1904 10.927 18.0572C10.927 18.924 10.5826 19.7552 9.96972 20.3682C9.35681 20.9811 8.52553 21.3254 7.65875 21.3254ZM7.65875 8.76648C7.65875 7.89959 8.00312 7.0682 8.61611 6.45521C9.2291 5.84222 10.0605 5.49785 10.9274 5.49785C11.7943 5.49785 12.6257 5.84222 13.2387 6.45521C13.8516 7.0682 14.196 7.89959 14.196 8.76648C14.196 9.63338 13.8516 10.4648 13.2387 11.0778C12.6257 11.6907 11.7943 12.0351 10.9274 12.0351C10.0605 12.0351 9.2291 11.6907 8.61611 11.0778C8.00312 10.4648 7.65875 9.63338 7.65875 8.76648ZM15.9801 27.8618C15.5508 27.8617 15.1257 27.777 14.7291 27.6126C14.3326 27.4482 13.9722 27.2073 13.6688 26.9037C13.3653 26.6001 13.1246 26.2396 12.9604 25.843C12.7962 25.4463 12.7118 25.0212 12.7119 24.5919C12.712 24.1626 12.7967 23.7375 12.961 23.3409C13.1254 22.9443 13.3663 22.584 13.67 22.2806C13.9736 21.9771 14.3341 21.7364 14.7307 21.5722C15.1274 21.408 15.5525 21.3236 15.9818 21.3237C16.8488 21.3239 17.6802 21.6685 18.2931 22.2818C18.906 22.895 19.2502 23.7266 19.25 24.5936C19.2498 25.4606 18.9051 26.292 18.2919 26.9049C17.6787 27.5178 16.8471 27.862 15.9801 27.8618ZM24.3023 14.789C25.1691 14.7892 26.0003 15.1336 26.6133 15.7464C27.2263 16.3593 27.5709 17.1904 27.5713 18.0572C27.5713 18.9242 27.2269 19.7557 26.6138 20.3688C26.0008 20.9818 25.1693 21.3263 24.3023 21.3263C23.4353 21.3263 22.6038 20.9818 21.9907 20.3688C21.3776 19.7557 21.0332 18.9242 21.0332 18.0572C21.0334 17.1903 21.378 16.359 21.991 15.7462C22.604 15.1333 23.4354 14.789 24.3023 14.789ZM21.468 29.1448C23.308 28.3728 24.9661 27.2242 26.3354 25.7728C27.7048 24.3215 28.7552 22.5995 29.419 20.7178C30.2277 24.4793 32.7895 27.5816 36.2063 29.1448H21.468ZM34.1722 22.6987C33.4387 22.6987 32.7353 22.4073 32.2167 21.8887C31.6981 21.3701 31.4067 20.6667 31.4067 19.9332C31.4067 19.1998 31.6981 18.4963 32.2167 17.9777C32.7353 17.4591 33.4387 17.1677 34.1722 17.1677C34.9056 17.1677 35.609 17.4591 36.1277 17.9777C36.6463 18.4963 36.9377 19.1998 36.9377 19.9332C36.9377 20.6667 36.6463 21.3701 36.1277 21.8887C35.609 22.4073 34.9056 22.6987 34.1722 22.6987ZM34.1722 12.0699C34.1721 11.7067 34.2436 11.3469 34.3825 11.0113C34.5215 10.6757 34.7253 10.3707 34.9822 10.1139C35.2391 9.85705 35.5441 9.65337 35.8798 9.51448C36.2155 9.3756 36.5752 9.30423 36.9385 9.30445C37.6719 9.30445 38.3751 9.59577 38.8937 10.1143C39.4122 10.6329 39.7036 11.3362 39.7036 12.0695C39.7036 12.8028 39.4122 13.5061 38.8937 14.0247C38.3751 14.5432 37.6719 14.8345 36.9385 14.8345C36.5753 14.835 36.2155 14.7638 35.8797 14.625C35.544 14.4863 35.239 14.2827 34.982 14.0259C34.7251 13.7691 34.5213 13.4642 34.3823 13.1286C34.2434 12.7929 34.172 12.4332 34.1722 12.0699ZM38.4476 25.4633C38.4476 25.1001 38.5191 24.7404 38.6582 24.4049C38.7972 24.0694 39.001 23.7645 39.2579 23.5078C39.5148 23.2511 39.8198 23.0475 40.1554 22.9086C40.491 22.7698 40.8507 22.6984 41.2139 22.6987C41.7609 22.6988 42.2955 22.8612 42.7502 23.1652C43.2049 23.4692 43.5592 23.9012 43.7683 24.4066C43.9775 24.912 44.0321 25.4681 43.9252 26.0045C43.8183 26.5409 43.5548 27.0336 43.1679 27.4202C42.781 27.8069 42.2882 28.0701 41.7517 28.1766C41.2152 28.2832 40.6592 28.2282 40.154 28.0188C39.6487 27.8093 39.2169 27.4547 38.9132 26.9998C38.6094 26.545 38.4474 26.0102 38.4476 25.4633Z" fill="#C3B214"/>
</svg>

<svg width="55" height="55" fill="none" xmlns="http://www.w3.org/2000/svg"><path d="M53.281 18.174c0-6.665-5.404-12.067-12.067-12.067-5.06 0-9.386 3.118-11.18 7.534C28.915 6.88 23.06 1.719 15.98 1.719 8.105 1.719 1.72 8.105 1.72 15.98c0 7.623 5.984 13.83 13.507 14.224-.214.34-.343.73-.343 1.136v7.13l-7.68-3.84v16.457l7.753-3.876c.24.925 1.1 1.68 2.122 1.68h6.582v4.39h9.874v-4.389h5.485c1.203 0 2.194-1.049 2.194-2.193v-9.874l5.485 1.097v-7.68l-5.485 1.097c0-.397-.125-.779-.33-1.114.11.003.217.017.33.017 6.664 0 12.068-5.403 12.068-12.068zm-2.26 1.758a2.767 2.767 0 0 1-5.533 0 2.767 2.767 0 0 1 5.533 0zM45.49 9.304a2.765 2.765 0 1 1 0 5.53 2.765 2.765 0 0 1 0-5.53zm-1.802 9.288a.692.692 0 1 1-1.384 0 .692.692 0 0 1 1.384 0zm-1.383-2.658a.692.692 0 1 1 0 1.383.692.692 0 0 1 0-1.383zm-1.069 3.35a.693.693 0 1 1 0 1.385.693.693 0 0 1 0-1.386zm-.377-2.658a.692.692 0 1 1-1.383.004.692.692 0 0 1 1.383-.004zm-.692 1.966a.692.692 0 1 1-1.385 0 .692.692 0 0 1 1.385 0zM21.034 5.498a3.27 3.27 0 1 1 .184 6.536 3.27 3.27 0 0 1-.184-6.536zm-2.13 10.977a.819.819 0 0 1-1.635 0 .817.817 0 1 1 1.635 0zm-1.635-3.14a.818.818 0 1 1-.003 1.636.818.818 0 0 1 .003-1.636zm-1.262 3.956a.817.817 0 1 1-.005 1.635.817.817 0 0 1 .005-1.634zm-.447-3.139a.818.818 0 1 1-1.636.05.818.818 0 0 1 1.636-.05zm-.817 2.323a.818.818 0 0 1-1.635 0 .818.818 0 0 1 1.635 0zm-7.084 4.85a3.268 3.268 0 1 1 0-6.536 3.268 3.268 0 0 1 0 6.536zm0-12.559a3.269 3.269 0 1 1 6.537 0 3.269 3.269 0 0 1-6.537 0zm8.321 19.096a3.269 3.269 0 1 1 .002-6.538 3.269 3.269 0 0 1-.002 6.538zm8.322-13.073a3.27 3.27 0 0 1 0 6.537 3.27 3.27 0 0 1 0-6.537zm-2.834 14.356a14.295 14.295 0 0 0 7.951-8.427 12.084 12.084 0 0 0 6.787 8.427H21.468zm12.704-6.446a2.765 2.765 0 1 1 0-5.531 2.765 2.765 0 0 1 0 5.53zm0-10.63a2.767 2.767 0 1 1 5.533 0 2.767 2.767 0 0 1-5.533 0zm4.276 13.394a2.764 2.764 0 0 1 4.302-2.298 2.765 2.765 0 1 1-4.302 2.298z" fill="#C3B214"/></svg>
